icons/svg/icons8/sail_boat.svg

<?xml version="1.0" encoding="utf-8"?>
<!-- Generator: Adobe Illustrator 15.0.0, SVG Export Plug-In . SVG Version: 6.00 Build 0)  -->
<!DOCTYPE svg PUBLIC "-//W3C//DTD SVG 1.1//EN" "http://www.w3.org/Graphics/SVG/1.1/DTD/svg11.dtd">
<svg version="1.1" id="Layer_1" xmlns="http://www.w3.org/2000/svg" xmlns:xlink="http://www.w3.org/1999/xlink" x="0px" y="0px"
	 width="26px" height="26px" viewBox="0 0 26 26" enable-background="new 0 0 26 26" xml:space="preserve">
<rect x="902" y="1469" fill="#333333" width="26" height="2"/>
<rect x="902" y="1489" fill="#333333" width="26" height="2"/>
<rect x="906" y="1474" fill="#333333" width="18" height="2"/>
<rect x="902" y="1479" fill="#333333" width="26" height="2"/>
<rect x="906" y="1484" fill="#333333" width="18" height="2"/>
<rect x="902" y="1467" fill="none" width="26" height="26"/>
<rect fill="none" width="26" height="26"/>
<path fill="#333333" d="M26,20.934c-0.268,0.094-0.591,0.16-1,0.16c-0.833,0-2.113-0.228-3-0.926c-0.887,0.698-2.167,0.926-3,0.926
	s-2.113-0.228-3-0.926c-0.887,0.698-2.167,0.926-3,0.926s-2.113-0.228-3-0.926c-0.887,0.698-2.167,0.926-3,0.926
	s-2.113-0.228-3-0.926c-0.887,0.698-2.167,0.926-3,0.926c-0.374,0-0.699-0.033-1-0.08v1.846c0.291,0.031,0.619,0.051,1,0.051
	c1.734,0,2.369-0.43,3-0.926c0.887,0.698,2.167,0.926,3,0.926s2.113-0.228,3-0.926c0.887,0.698,2.167,0.926,3,0.926
	s2.113-0.228,3-0.926c0.887,0.698,2.167,0.926,3,0.926s2.113-0.228,3-0.926c0.887,0.698,2.167,0.926,3,0.926
	c0.414,0,0.736-0.063,1-0.15V20.934z"/>
<path fill="#333333" d="M26,23.934c-0.268,0.094-0.591,0.16-1,0.16c-0.833,0-2.113-0.228-3-0.926c-0.887,0.698-2.167,0.926-3,0.926
	s-2.113-0.228-3-0.926c-0.887,0.698-2.167,0.926-3,0.926s-2.113-0.228-3-0.926c-0.887,0.698-2.167,0.926-3,0.926
	s-2.113-0.228-3-0.926c-0.887,0.698-2.167,0.926-3,0.926c-0.374,0-0.699-0.033-1-0.08v1.846c0.291,0.031,0.619,0.051,1,0.051
	c1.734,0,2.369-0.43,3-0.926c0.887,0.698,2.167,0.926,3,0.926s2.113-0.228,3-0.926c0.887,0.698,2.167,0.926,3,0.926
	s2.113-0.228,3-0.926c0.887,0.698,2.167,0.926,3,0.926s2.113-0.228,3-0.926c0.887,0.698,2.167,0.926,3,0.926
	c0.414,0,0.736-0.063,1-0.15V23.934z"/>
<path fill="#333333" d="M23.23,16H2.481C1.929,16,2,16.447,2,17c0,2.813,7.421,5,8,5s2.795,0,3.469,0
	c1.522,0,6.867-1.592,10.109-5.074C24.105,16.359,24.184,16,23.23,16z"/>
<path fill="#333333" d="M21,16l-8-2c0,0,3-3,1-12C21,10,21,16,21,16z"/>
<path fill="#333333" d="M12,16l-9-3c0,0,6-4,9-13V16z"/>
</svg>

<svg width="26" height="26" viewBox="0 0 26 26" fill="none" xmlns="http://www.w3.org/2000/svg">
<g clip-path="url(#clip0)">
<path d="M26 20.934C25.732 21.028 25.409 21.094 25 21.094C24.167 21.094 22.887 20.866 22 20.168C21.113 20.866 19.833 21.094 19 21.094C18.167 21.094 16.887 20.866 16 20.168C15.113 20.866 13.833 21.094 13 21.094C12.167 21.094 10.887 20.866 10 20.168C9.113 20.866 7.833 21.094 7 21.094C6.167 21.094 4.887 20.866 4 20.168C3.113 20.866 1.833 21.094 1 21.094C0.626 21.094 0.301 21.061 0 21.014V22.86C0.291 22.891 0.619 22.911 1 22.911C2.734 22.911 3.369 22.481 4 21.985C4.887 22.683 6.167 22.911 7 22.911C7.833 22.911 9.113 22.683 10 21.985C10.887 22.683 12.167 22.911 13 22.911C13.833 22.911 15.113 22.683 16 21.985C16.887 22.683 18.167 22.911 19 22.911C19.833 22.911 21.113 22.683 22 21.985C22.887 22.683 24.167 22.911 25 22.911C25.414 22.911 25.736 22.848 26 22.761V20.934Z" fill="#333333"/>
<path d="M26 23.934C25.732 24.028 25.409 24.094 25 24.094C24.167 24.094 22.887 23.866 22 23.168C21.113 23.866 19.833 24.094 19 24.094C18.167 24.094 16.887 23.866 16 23.168C15.113 23.866 13.833 24.094 13 24.094C12.167 24.094 10.887 23.866 10 23.168C9.113 23.866 7.833 24.094 7 24.094C6.167 24.094 4.887 23.866 4 23.168C3.113 23.866 1.833 24.094 1 24.094C0.626 24.094 0.301 24.061 0 24.014V25.86C0.291 25.891 0.619 25.911 1 25.911C2.734 25.911 3.369 25.481 4 24.985C4.887 25.683 6.167 25.911 7 25.911C7.833 25.911 9.113 25.683 10 24.985C10.887 25.683 12.167 25.911 13 25.911C13.833 25.911 15.113 25.683 16 24.985C16.887 25.683 18.167 25.911 19 25.911C19.833 25.911 21.113 25.683 22 24.985C22.887 25.683 24.167 25.911 25 25.911C25.414 25.911 25.736 25.848 26 25.761V23.934Z" fill="#333333"/>
<path d="M23.23 16H2.48104C1.92904 16 2.00004 16.447 2.00004 17C2.00004 19.813 9.42104 22 10 22C10.579 22 12.795 22 13.469 22C14.991 22 20.336 20.408 23.578 16.926C24.105 16.359 24.184 16 23.23 16Z" fill="#333333"/>
<path d="M21 16L13 14C13 14 16 11 14 2C21 10 21 16 21 16Z" fill="#333333"/>
<path d="M12 16L3 13C3 13 9 9 12 0V16Z" fill="#333333"/>
</g>
<defs>
<clipPath id="clip0">
<rect width="26" height="26" fill="white"/>
</clipPath>
</defs>
</svg>
